X: 1
T: the Quinie Fae Rhynie
R: reel
M: 4/4
L: 1/8
K: Emin
|: E2GE D2GA | BA (3AAA BAGD | E2GE D2Bc |1 dBAc BAGD :|2 dBAc BGAB ||
|: c3c cBAc | B3B BAGB | AF (3FFF AFEF |1 GDGA BGAB :|2 GDBA G3D |]
